X: 145
U:~=!turn!
M:6/8
L:1/8
K:A dorian
dBB (B2 e) | dBB (B2 A) | GBd dBd | ege dBG | dBA (A2 e) | dBA A2 :: B | GBB gBB | aBB bBB | dBB (B2 e) | dBB (B2 A) | GBB gBB |
aBB bBB | dBA (A2 e) | dBA A2 :: g | bag agf | gfe efg | dBB (B2 e) | dBB (B2 g) | bag agf | gfe efg | dBA (A2 e) | dBA A2 :|


